X:1
T: My Love is like a Red, Red, Rose
C:
R:Strathspey
Q: 128
K:D
M:4/4
L:1/16
|:A4|D6 D2 E4 F4|d6 c2 B4 A4|B6 A2 B4 d4|e8 d4 e2f2|
D6 D2 E4 F4|d6 c2 B4 A4|B6 A2 B4 c4|d12 A4|
d4 f4 e4 d4|B2 d6 A4 F4|A4 A4 g4 f4|e8 a6 g2|
f4 a4 f4 d4|B6 d2 A4 F4|A6 A2 B4 c4|d12:|
